X: 11702
T: Éirinn Go Brách
R: jig
M: 6/8
K: Amajor
B|:cAA eAA|aAa e2d|cAA eAA|Bcd Bcd|
cAA eAA|aAa e2d|cde Bcd|BAG ABd:|
|:~c3 ecA|~d3 fed|~c3 ecA|Bcd Bcd|
~c3 ecA|~d3 fed|cde Bcd|BAG ABd:|

